X:1
T: Have a Drink with me
C:
R:Jig
Q:180
K:G
M:6/8
L:1/16
dc|B2A2G2 E2G2D2|E2G2D2 E2G2D2|B2A2G2 E2G2D2|E2A2A2 A2B2c2|B2A2G2 E2G2D2|E2G2D2 E2G2D2|B2A2G2 E2G2D2|E2G2G2 G4dc|
B2A2G2 E2G2D2|E2G2D2 E2G2D2|B2A2G2 E2G2D2|E2A2A2 A2B2c2|B2A2G2 E2G2D2|E2G2D2 E2G2D2|B2A2G2 E2G2D2|E2G2G2 G4D2|
G2B2d2 e4d2|d2g2d2 B4A2|G2B2d2 e4d2|e2a2a2 a2g2a2|b2a2g2 a2g2f2|g2f2e2 d2B2G2|B2A2G2 E2G2D2|E2G2G2 G4D2|
G2B2d2 e4d2|d2g2d2 B4A2|G2B2d2 e4d2|e2a2a2 a2g2a2|b2a2g2 a2g2f2|g2f2e2 d2B2G2|B2A2G2 E2G2D2|E2G2G2 G4||
